resources/svg/brands/jxl.svg

<svg fill="currentColor" xmlns="http://www.w3.org/2000/svg" viewBox="0 0 448 512"><!--! Font Awesome Free 7.1.0 by @fontawesome - https://fontawesome.com License - https://fontawesome.com/license/free (Icons: CC BY 4.0, Fonts: SIL OFL 1.1, Code: MIT License) Copyright 2025 Fonticons, Inc. --><path fill="currentColor" d="M412.2 32L35.8 32C16 32 0 48 0 67.8L0 444.2C0 464 16 480 35.8 480l376.4 0c19.8 0 35.8-16 35.8-35.8l0-376.4C448 48 432 32 412.2 32zM378.6 333.7c0 40.2-32.6 72.8-72.8 72.8l-235.6 0c0-40.2 32.6-72.8 72.8-72.8l235.6 0zm0-113.9c0 40.2-32.6 72.8-72.8 72.8l-235.6 0c0-40.2 32.6-72.8 72.8-72.8l235.6 0zm0-113.9c0 40.2-32.6 72.8-72.8 72.8l-235.6 0c0-40.2 32.6-72.8 72.8-72.8l235.6 0z"/></svg>

<svg fill="currentColor" xmlns="http://www.w3.org/2000/svg" viewBox="0 0 448 512"><!--! Font Awesome Free 6.7.2 by @fontawesome - https://fontawesome.com License - https://fontawesome.com/license/free (Icons: CC BY 4.0, Fonts: SIL OFL 1.1, Code: MIT License) Copyright 2024 Fonticons, Inc. --><path d="M412.2 32H35.8C16 32 0 48 0 67.8V444.2C0 464 16 480 35.8 480H412.2c19.8 0 35.8-16 35.8-35.8V67.8C448 48 432 32 412.2 32zM378.6 333.7c0 40.2-32.6 72.8-72.8 72.8H70.2c0-40.2 32.6-72.8 72.8-72.8H378.6zm0-113.9c0 40.2-32.6 72.8-72.8 72.8H70.2c0-40.2 32.6-72.8 72.8-72.8H378.6zm0-113.9c0 40.2-32.6 72.8-72.8 72.8H70.2c0-40.2 32.6-72.8 72.8-72.8H378.6z"/></svg>
